resources/haticons/SVG/settings_display.svg

<!-- Generated by IcoMoon.io -->
<svg version="1.1" xmlns="http://www.w3.org/2000/svg" width="24" height="24" viewBox="0 0 24 24">
<title>settings_display</title>
<path d="M12 9v6q1.219 0 2.109-0.891t0.891-2.109-0.891-2.109-2.109-0.891zM8.016 15.984v-2.484l-1.5-1.5 1.5-1.5v-2.484h2.484l1.5-1.5 1.5 1.5h2.484v2.484l1.5 1.5-1.5 1.5v2.484h-2.484l-1.5 1.5-1.5-1.5h-2.484zM21 19.031v-14.063h-18v14.063h18zM21 3q0.797 0 1.406 0.609t0.609 1.406v13.969q0 0.797-0.609 1.406t-1.406 0.609h-18q-0.797 0-1.406-0.609t-0.609-1.406v-13.969q0-0.797 0.609-1.406t1.406-0.609h18z"></path>
</svg>

<svg xmlns="http://www.w3.org/2000/svg" width="24" height="24"><path d="M12 9v6q1.219 0 2.109-.891T15 12t-.891-2.109T12 9zm-3.984 6.984V13.5l-1.5-1.5 1.5-1.5V8.016H10.5l1.5-1.5 1.5 1.5h2.484V10.5l1.5 1.5-1.5 1.5v2.484H13.5l-1.5 1.5-1.5-1.5H8.016zM21 19.031V4.968H3v14.063h18zM21 3q.797 0 1.406.609t.609 1.406v13.969q0 .797-.609 1.406T21 20.999H3q-.797 0-1.406-.609t-.609-1.406V5.015q0-.797.609-1.406T3 3h18z"/></svg>
